dist/img/svg/partners__slide__10.svg

<svg width="75" height="53" viewBox="0 0 75 53" fill="none" xmlns="http://www.w3.org/2000/svg">
<path opacity="0.7" fill-rule="evenodd" clip-rule="evenodd" d="M0 41.5846H7.42419V24.585C10.881 30.4448 14.2548 36.1638 17.6976 42C21.1201 36.2182 24.5631 30.3845 27.9873 24.5816V41.5846H33.6306H35.4115H55.5374L52.0886 35.907H35.4115V29.5845H48.5502L45.1015 23.9069H35.4116V17.7355H41.6722L38.2234 12.0579C34.8119 12.0579 31.4473 12 27.9875 12L17.706 29.9414L7.42439 12H0.000195886V41.5847L0 41.5846ZM75 12.0579C63.102 12.0579 51.4339 12.0579 39.5337 12.0579L42.9824 17.7354H51.4423H53.7102V35.907L57.4167 42L61.1344 35.907V17.7354H63.0913H71.5512L74.9999 12.0579H75Z" fill="black"/>
</svg>

<svg width="75" height="53" viewBox="0 0 75 53" fill="none" xmlns="http://www.w3.org/2000/svg"><path opacity=".7" fill-rule="evenodd" clip-rule="evenodd" d="M0 41.585h7.424v-17L17.698 42c3.422-5.782 6.865-11.616 10.29-17.418v17.003h27.549l-3.448-5.678H35.41v-6.322h13.14l-3.45-5.678h-9.69v-6.172h6.261l-3.449-5.677c-3.411 0-6.776-.058-10.235-.058L17.706 29.941 7.424 12H0v29.585zm75-29.527H39.534l3.448 5.677H53.71v18.172L57.417 42l3.717-6.093V17.735h10.417L75 12.058z" fill="#000"/></svg>
